dist/intermediate-svg/funnel.svg

<?xml version="1.0" encoding="utf-8"?><svg width="24" height="23.04" fill="none" xmlns="http://www.w3.org/2000/svg" viewBox="0 0 25 24"><path d="M14.3858 4.87505C13.1621 4.57754 11.8732 4.58027 10.6313 4.89395C8.87986 5.3363 7.33017 6.36964 6.24626 7.81792C5.16234 9.2662 4.61126 11.0398 4.68691 12.8365C4.76256 14.6332 5.46027 16.3419 6.66114 17.6714C7.86202 19.0009 9.49176 19.8689 11.2727 20.1276C13.0536 20.3863 14.8755 20.0197 16.428 19.0901C17.9805 18.1606 19.1675 16.7257 19.7867 15.0299C20.2023 13.8918 20.3449 12.6834 20.2138 11.5001" stroke="#333"/><path d="M16.7528 10.9681C17.1129 11.9809 17.1106 13.0872 16.7464 14.0986C16.3821 15.1099 15.6785 15.9636 14.7554 16.5144C13.8323 17.0651 12.7467 17.2787 11.6838 17.1187C10.6208 16.9588 9.64623 16.4353 8.92601 15.6373C8.20579 14.8394 7.78453 13.8164 7.734 12.7427C7.68348 11.6689 8.00682 10.6109 8.64893 9.74885C9.29104 8.88679 10.2122 8.27405 11.2554 8.01503C12.2987 7.756 13.3994 7.86672 14.3702 8.32831" stroke="#333"/><path d="M16.8945 8.00012L12.1692 12.6831" stroke="#0094FF"/><path d="M18.8945 2.00012L16.3945 8.50012L22.8945 6.00012H18.8945V2.00012Z" stroke="#0094FF" stroke-linejoin="round"/></svg>

<?xml version="1.0" encoding="utf-8"?><svg width="24" height="23.04" fill="none" xmlns="http://www.w3.org/2000/svg" viewBox="0 0 25 24"><path d="M14.386 4.875a7.804 7.804 0 00-3.755.019 7.896 7.896 0 00-4.385 2.924 7.83 7.83 0 00-1.56 5.018 7.69 7.69 0 001.975 4.835 7.7 7.7 0 004.612 2.457 7.845 7.845 0 005.155-1.038 7.89 7.89 0 003.359-4.06 7.79 7.79 0 00.427-3.53M16.753 10.968a4.646 4.646 0 11-2.383-2.64" stroke="#333"/><path d="M16.895 8l-4.726 4.683" stroke="#0094FF"/><path d="M18.895 2l-2.5 6.5 6.5-2.5h-4V2z" stroke="#0094FF" stroke-linejoin="round"/></svg>
